X:7836
T:Cinderella
C:anon.
O:France
Z:Transcribed by Frank Nordberg - http://www.musicaviva.com
F:http://abc.musicaviva.com/tunes/france/cinderella.abc
M:3/4
L:1/4
K:Bb
d2c|B2B|cBc|d2B|
d2c|B2B|cdc|B2z||
DEF|C3|DEF|C3|
DEF|CDE|DEF|C3||
d2c|B2B|cBc|d2B|
d2c|B2B|cdc|B2z||
W:
W:
W:  From Musica Viva - http://www.musicaviva.com
W:  the Internet center for free sheet music downloads.
